svg/fluentui-system-icons/ic_fluent_comment_multiple_link_20_regular.svg

<svg width="20" height="20" viewBox="0 0 20 20" fill="none" xmlns="http://www.w3.org/2000/svg">
<path d="M6.5 2C5.27577 2 4.25706 2.87996 4.04188 4.04188C2.87996 4.25706 2 5.27577 2 6.5V13.5C2 14.8807 3.11929 16 4.5 16H5V17.0284C5 17.8418 5.91937 18.3149 6.58124 17.8421L9.16024 16H9.33682C9.18915 15.6891 9.08595 15.3531 9.03544 15H8.83978L6 17.0284V15H4.5C3.67157 15 3 14.3284 3 13.5V6.5C3 5.67157 3.67157 5 4.5 5H13.5C14.3284 5 15 5.67157 15 6.5V11H16V6.5C16 5.11929 14.8807 4 13.5 4H5.08535C5.29127 3.4174 5.84689 3 6.5 3H14.5C15.8807 3 17 4.11929 17 5.5V10.5C17 10.6841 16.9668 10.8604 16.9062 11.0233C17.2466 11.0627 17.5722 11.1509 17.8757 11.2807C17.9564 11.0351 18 10.7726 18 10.5V5.5C18 3.567 16.433 2 14.5 2H6.5ZM12.5 12C11.1193 12 10 13.1193 10 14.5C10 15.8807 11.1193 17 12.5 17H13C13.2761 17 13.5 16.7761 13.5 16.5C13.5 16.2239 13.2761 16 13 16H12.5C11.6716 16 11 15.3284 11 14.5C11 13.6716 11.6716 13 12.5 13H13C13.2761 13 13.5 12.7761 13.5 12.5C13.5 12.2239 13.2761 12 13 12H12.5ZM16 12C15.7239 12 15.5 12.2239 15.5 12.5C15.5 12.7761 15.7239 13 16 13H16.5C17.3284 13 18 13.6716 18 14.5C18 15.3284 17.3284 16 16.5 16H16C15.7239 16 15.5 16.2239 15.5 16.5C15.5 16.7761 15.7239 17 16 17H16.5C17.8807 17 19 15.8807 19 14.5C19 13.1193 17.8807 12 16.5 12H16ZM12 14.5C12 14.2239 12.2239 14 12.5 14H16.5C16.7761 14 17 14.2239 17 14.5C17 14.7761 16.7761 15 16.5 15H12.5C12.2239 15 12 14.7761 12 14.5Z" fill="#212121"/>
</svg>

<svg xmlns="http://www.w3.org/2000/svg" width="20" height="20"><path d="M6.5 2a2.5 2.5 0 0 0-2.458 2.042A2.5 2.5 0 0 0 2 6.5v7A2.5 2.5 0 0 0 4.5 16H5v1.028a1 1 0 0 0 1.581.814L9.161 16h.176a3.476 3.476 0 0 1-.302-1H8.84L6 17.028V15H4.5A1.5 1.5 0 0 1 3 13.5v-7A1.5 1.5 0 0 1 4.5 5h9A1.5 1.5 0 0 1 15 6.5V11h1V6.5A2.5 2.5 0 0 0 13.5 4H5.085A1.5 1.5 0 0 1 6.5 3h8A2.5 2.5 0 0 1 17 5.5v5c0 .184-.033.36-.094.523.34.04.666.128.97.258A2.52 2.52 0 0 0 18 10.5v-5A3.5 3.5 0 0 0 14.5 2h-8Zm6 10a2.5 2.5 0 0 0 0 5h.5a.5.5 0 0 0 0-1h-.5a1.5 1.5 0 0 1 0-3h.5a.5.5 0 0 0 0-1h-.5Zm3.5 0a.5.5 0 0 0 0 1h.5a1.5 1.5 0 0 1 0 3H16a.5.5 0 0 0 0 1h.5a2.5 2.5 0 0 0 0-5H16Zm-4 2.5a.5.5 0 0 1 .5-.5h4a.5.5 0 0 1 0 1h-4a.5.5 0 0 1-.5-.5Z"/></svg>
